my_site/img/clients/fa-brands_lyft.svg

<svg width="84" height="59" viewBox="0 0 84 59" fill="none" xmlns="http://www.w3.org/2000/svg">
<g clip-path="url(#clip0)">
<path d="M0.5 0.995234H13.1121V35.0099C13.1121 40.4046 15.5437 43.6154 17.5215 44.9519C15.4627 46.761 9.22148 48.3582 4.52031 44.4955C1.76445 42.2137 0.5 38.4162 0.5 34.8795V0.995234ZM79.2689 29.2729V25.6872H83.1272V13.1701H78.8961C77.2588 5.62396 70.5961 0.017334 62.6365 0.017334C53.4611 0.017334 45.9879 7.51457 45.9879 16.7557V45.9624C48.5816 46.3372 51.7266 45.9135 54.3689 43.6806C57.141 41.3988 58.3893 37.6176 58.3893 34.0646V32.9726H64.6791V20.4555H58.3893V16.6579C58.3893 11.0187 66.8514 11.0187 66.8514 16.6579V29.224C66.8514 38.4488 74.3084 45.9624 83.5 45.9624V33.4941C81.1494 33.4941 79.2689 31.5872 79.2689 29.2729ZM31.5602 13.1375V31.5546C31.5602 34.0646 27.702 34.0646 27.702 31.5546V13.1375H15.252V34.7654C15.252 38.6444 16.5488 43.5665 22.5469 45.18C28.5449 46.7773 31.9816 43.4524 31.9816 43.4524C31.6412 45.6364 29.6311 47.2499 26.324 47.5759C23.8113 47.8367 20.6178 46.9892 19.0291 46.3046V57.7624C23.098 58.9847 27.3777 59.3596 31.6088 58.5284C39.2441 57.0452 44.0588 50.64 44.0588 42.0996V13.056H31.5602V13.1375Z" fill="#737373"/>
</g>
<defs>
<clipPath id="clip0">
<rect width="83" height="59" fill="white" transform="translate(0.5)"/>
</clipPath>
</defs>
</svg>

<svg width="84" height="59" fill="none" xmlns="http://www.w3.org/2000/svg"><g clip-path="url(#clip0)"><path d="M.5.995h12.612V35.01c0 5.395 2.432 8.605 4.41 9.942-2.06 1.809-8.3 3.406-13.002-.456C1.764 42.213.5 38.416.5 34.879V.995zm78.769 28.278v-3.586h3.858V13.17h-4.23C77.258 5.624 70.596.017 62.636.017c-9.176 0-16.65 7.498-16.65 16.739v29.206c2.595.375 5.74-.049 8.382-2.281 2.772-2.282 4.02-6.063 4.02-9.616v-1.092h6.29V20.456h-6.29v-3.798c0-5.64 8.462-5.64 8.462 0v12.566c0 9.225 7.457 16.738 16.649 16.738V33.494a4.228 4.228 0 01-4.231-4.221zM31.56 13.137v18.418c0 2.51-3.858 2.51-3.858 0V13.137h-12.45v21.628c0 3.88 1.297 8.801 7.295 10.415 5.998 1.597 9.435-1.728 9.435-1.728-.34 2.184-2.35 3.798-5.658 4.124-2.513.26-5.706-.587-7.295-1.271v11.457c4.069 1.223 8.349 1.598 12.58.766 7.635-1.483 12.45-7.888 12.45-16.428V13.056H31.56v.082z" fill="#737373"/></g><defs><clipPath id="clip0"><path fill="#fff" transform="translate(.5)" d="M0 0h83v59H0z"/></clipPath></defs></svg>
